X:22
%%etbk:tnset id:234,pos:2,rep:3x,ant:
%%etbk:wsite http://www.thesession.org/tunes/display/500
%%etbk:pldat 2016-07-21T19:32,2014-09-24T16:45,2014-05-07T17:24,2014-03-25T16:09,2014-02-16T14:18,2013-11-19T16:30,2013-10-20T15:21,2013-10-04T17:44,2013-08-26T18:39,2013-05-15T16:49,2013-05-12T19:14
T: Rolling In The Barrel
Z: Piano Box Version by Martin Fleischmann
H: Created 2013-02-19 /  Last Modified 2013-02-19
M: 4/4
L: 1/8
R: reel
K: Emin
|: !1!E2 !2!E!1!E !5!B!1!E !3!(3E!2!E!1!E | !5!B!5!B !4!A!2!F !1!D!2!E!3!F!1!D | !1!E2 EE B!1!E~E2 | !3!BB !2!A!4!c !3!B!1!EE!2!D |
!1!E2 EE BE~E2 | !5!BB AF DEFD | !1!E2 EE BE~E2 | !3!BB Ac BE E2 ||
!2!e2 !3!g!2!e !5!b!2!e!3!g!2!e | !1!d!2!d !1!d!3!f aafd | e2ge bege | !1!d!2!B!1!A!3!c !2!B!1!E E2 |
!2!e2 ge be ge | !1!d2df a2fd | !2!efge !3!f!1!d!5!e!2!B | !4!d!2!B !1!A!3!c !2!B!1!E E2 :|


